Newaita/actions/24/delete-comment.svg

<svg height="24" viewBox="0 0 24 24" width="24" xmlns="http://www.w3.org/2000/svg"><path d="m11.90625 2.175781c-5.445312 0-9.917969 4.1875-9.917969 9.421875 0 1.476563.359375 2.882813.992188 4.125l-.972657 5.117188c-.070312.359375.066407.722656.347657.953125.285156.230469.667969.285156 1.003906.144531l4.304687-1.816406c1.289063.578125 2.726563.898437 4.242188.898437.679688 0 1.34375-.0625 1.984375-.1875v-2.015625c-.632813.148438-1.296875.230469-1.984375.230469-1.316406 0-2.550781-.296875-3.636719-.820313-.28125-.199218-.648437-.234374-.960937-.097656l-3.015625 1.269532.644531-3.398438c.011719-.058594.019531-.113281.019531-.171875.074219-.257813.042969-.535156-.089843-.769531-.578126-1.035156-.902344-2.207032-.902344-3.460938 0-4.109375 3.496094-7.445312 7.941406-7.445312 4.449219 0 7.945312 3.335937 7.945312 7.445312 0 .871094-.15625 1.707032-.445312 2.480469h2.074219c.222656-.789063.34375-1.621094.34375-2.480469 0-5.234375-4.46875-9.421875-9.917969-9.421875zm0 0" fill="#424242"/><g fill="#f44336"><path d="m20.28125 21.875-4.210938-4.210938c-.191406-.195312-.191406-.507812 0-.703124l.703126-.699219c.195312-.195313.507812-.195313.703124 0l4.207032 4.207031c.195312.195312.195312.507812 0 .703125l-.699219.703125c-.195313.191406-.507813.191406-.703125 0zm0 0"/><path d="m16.070312 20.46875 4.210938-4.207031c.195312-.195313.507812-.195313.703125 0l.699219.699219c.195312.195312.195312.507812 0 .703124l-4.207032 4.210938c-.195312.191406-.507812.191406-.703124 0l-.703126-.703125c-.191406-.195313-.191406-.507813 0-.703125zm0 0"/></g></svg>

<svg xmlns="http://www.w3.org/2000/svg" xmlns:xlink="http://www.w3.org/1999/xlink" width="24px" height="24px" viewBox="0 0 24 24" version="1.1">
<g id="surface1">
     <defs>
  <style id="current-color-scheme" type="text/css">
   .ColorScheme-Text { color:#424242; } .ColorScheme-Highlight { color:#eeeeee; }
  </style>
 </defs>
<path style="fill:currentColor" class="ColorScheme-Text" d="M 11.90625 2.175781 C 6.460938 2.175781 1.988281 6.363281 1.988281 11.597656 C 1.988281 13.074219 2.347656 14.480469 2.980469 15.722656 L 2.007812 20.839844 C 1.9375 21.199219 2.074219 21.5625 2.355469 21.792969 C 2.640625 22.023438 3.023438 22.078125 3.359375 21.9375 L 7.664062 20.121094 C 8.953125 20.699219 10.390625 21.019531 11.90625 21.019531 C 12.585938 21.019531 13.25 20.957031 13.890625 20.832031 L 13.890625 18.816406 C 13.257812 18.964844 12.59375 19.046875 11.90625 19.046875 C 10.589844 19.046875 9.355469 18.75 8.269531 18.226562 C 7.988281 18.027344 7.621094 17.992188 7.308594 18.128906 L 4.292969 19.398438 L 4.9375 16 C 4.949219 15.941406 4.957031 15.886719 4.957031 15.828125 C 5.03125 15.570312 5 15.292969 4.867188 15.058594 C 4.289062 14.023438 3.964844 12.851562 3.964844 11.597656 C 3.964844 7.488281 7.460938 4.152344 11.90625 4.152344 C 16.355469 4.152344 19.851562 7.488281 19.851562 11.597656 C 19.851562 12.46875 19.695312 13.304688 19.40625 14.078125 L 21.480469 14.078125 C 21.703125 13.289062 21.824219 12.457031 21.824219 11.597656 C 21.824219 6.363281 17.355469 2.175781 11.90625 2.175781 Z M 11.90625 2.175781 "/>
<path style=" stroke:none;fill-rule:nonzero;fill:rgb(95.686275%,26.274511%,21.176471%);fill-opacity:1;" d="M 20.28125 21.875 L 16.070312 17.664062 C 15.878906 17.46875 15.878906 17.15625 16.070312 16.960938 L 16.773438 16.261719 C 16.96875 16.066406 17.28125 16.066406 17.476562 16.261719 L 21.683594 20.46875 C 21.878906 20.664062 21.878906 20.976562 21.683594 21.171875 L 20.984375 21.875 C 20.789062 22.066406 20.476562 22.066406 20.28125 21.875 Z M 20.28125 21.875 "/>
<path style=" stroke:none;fill-rule:nonzero;fill:rgb(95.686275%,26.274511%,21.176471%);fill-opacity:1;" d="M 16.070312 20.46875 L 20.28125 16.261719 C 20.476562 16.066406 20.789062 16.066406 20.984375 16.261719 L 21.683594 16.960938 C 21.878906 17.15625 21.878906 17.46875 21.683594 17.664062 L 17.476562 21.875 C 17.28125 22.066406 16.96875 22.066406 16.773438 21.875 L 16.070312 21.171875 C 15.878906 20.976562 15.878906 20.664062 16.070312 20.46875 Z M 16.070312 20.46875 "/>
</g>
</svg>
